newicons/qq.svg

<?xml version="1.0" encoding="UTF-8" standalone="no"?>
<svg
   viewBox="0 0 48 48"
   version="1.1"
   id="svg316"
   sodipodi:docname="qq.svg"
   xml:space="preserve"
   inkscape:version="1.2.2 (b0a8486541, 2022-12-01)"
   xmlns:inkscape="http://www.inkscape.org/namespaces/inkscape"
   xmlns:sodipodi="http://sodipodi.sourceforge.net/DTD/sodipodi-0.dtd"
   xmlns="http://www.w3.org/2000/svg"
   xmlns:svg="http://www.w3.org/2000/svg"><sodipodi:namedview
     id="namedview318"
     pagecolor="#505050"
     bordercolor="#eeeeee"
     borderopacity="1"
     inkscape:showpageshadow="0"
     inkscape:pageopacity="0"
     inkscape:pagecheckerboard="0"
     inkscape:deskcolor="#505050"
     showgrid="false"
     inkscape:zoom="12.831042"
     inkscape:cx="15.821007"
     inkscape:cy="29.615678"
     inkscape:window-width="1918"
     inkscape:window-height="1053"
     inkscape:window-x="0"
     inkscape:window-y="0"
     inkscape:window-maximized="1"
     inkscape:current-layer="svg316" /><defs
     id="defs296"><style
       id="style294">.a{fill:none;stroke:#fff;stroke-linecap:round;stroke-linejoin:round;}</style></defs><g
     id="g2228"><path
       style="fill:none;stroke:#ffffff;stroke-width:1;stroke-linecap:round;stroke-linejoin:round;stroke-opacity:1;stop-color:#000000"
       d="m 10.084096,25.280813 c 2.073081,0.603508 4.222058,1.069316 6.356667,1.398861 v 5.666871 0 c 1.903967,0.587274 3.451628,0.39632 5.332402,0.226554 v -5.34873 c 0.75901,0.03711 1.505536,0.05562 2.234961,0.05562 4.354049,0 9.317289,-0.659755 13.909338,-1.994905"
       id="path2176" /><path
       style="fill:none;stroke:#ffffff;stroke-width:1;stroke-linecap:round;stroke-linejoin:round;stroke-opacity:1;stop-color:#000000"
       d="m 36.150282,21.07593 c -4.076859,1.015763 -8.341587,1.518446 -12.142156,1.518446 -3.805234,0 -8.075769,-0.503917 -12.157169,-1.52219"
       id="path2174" /></g><g
     id="g2232"><path
       style="fill:none;stroke:#ffffff;stroke-width:1;stroke-linecap:round;stroke-linejoin:round;stroke-opacity:1;stop-color:#000000"
       d="m 15.513796,40.415675 c -7.9298103,2.724245 -2.35725,3.722814 6.608545,2.678261"
       id="path2164" /><path
       style="fill:none;stroke:#ffffff;stroke-width:1;stroke-linecap:round;stroke-linejoin:round;stroke-opacity:1;stop-color:#000000"
       d="m 32.490971,40.411731 c 7.949428,2.728171 2.369193,3.727955 -6.606392,2.681118"
       id="path2162" /></g><g
     id="g2236"><path
       style="fill:none;stroke:#ffffff;stroke-width:1;stroke-linecap:round;stroke-linejoin:round;stroke-opacity:1;stop-color:#000000"
       d="M 11.917115,20.912842 C 10.079461,25.445353 6.6956492,32.114237 7.9131296,36.705163 9.6003037,35.187041 10.13522,34.319769 11.259388,32.609563 11.308408,37.219434 16.024913,43.20521 24,43.20521 c 7.975087,0 12.69159,-5.985776 12.740612,-10.595647 1.124168,1.710206 1.659084,2.577478 3.346258,4.0956 C 41.304351,32.114237 37.920538,25.445353 36.082884,20.912842 37.059711,10.989139 31.607418,4.462203 24,4.5001628 16.392581,4.5381226 10.940288,10.989139 11.917115,20.912842 Z"
       id="path2178" /><path
       style="fill:none;stroke:#ffffff;stroke-width:1;stroke-linecap:round;stroke-linejoin:round;stroke-opacity:1;stop-color:#000000"
       d="m 14.684739,26.377418 c -1.698768,8.311187 1.401855,15.544591 9.314712,15.544591 7.911718,0 11.012588,-7.231318 9.315447,-15.540997"
       id="path1960" /></g><g
     id="g2207"><path
       style="fill:none;stroke:#ffffff;stroke-width:1;stroke-linecap:round;stroke-linejoin:round;stroke-opacity:1;stop-color:#000000"
       d="m 31.59613,18.118683 c -1.016356,-1.37842 -4.662497,-1.729259 -7.588004,-1.729259 -2.925506,0 -6.571647,0.350839 -7.588003,1.729259 2.286804,1.594419 5.852944,2.292121 7.588003,2.279001 1.73506,-0.01312 5.3012,-0.684582 7.588004,-2.279001 z"
       id="path2166" /><g
       id="g2199"><path
         style="fill:none;stroke:#ffffff;stroke-width:1;stroke-linecap:round;stroke-linejoin:round;stroke-opacity:1;stop-color:#000000"
         d="M 22.946863,12.37384 A 2.1901953,3.1188248 0 0 1 20.756667,15.492665 2.1901953,3.1188248 0 0 1 18.566472,12.37384 2.1901953,3.1188248 0 0 1 20.756667,9.2550153 2.1901953,3.1188248 0 0 1 22.946863,12.37384 Z"
         id="path2172" /><path
         style="fill:none;stroke:#ffffff;stroke-width:1;stroke-linecap:round;stroke-linejoin:round;stroke-opacity:1;stop-color:#000000"
         d="m 29.449779,12.37384 a 2.1901953,3.1188248 0 0 1 -2.190195,3.118828 2.1901953,3.1188248 0 0 1 -2.190196,-3.118825 2.1901953,3.1188248 0 0 1 2.190196,-3.1188247 2.1901953,3.1188248 0 0 1 2.190195,3.1188247 z"
         id="path2170" /><path
         style="fill:none;stroke:#ffffff;stroke-width:1;stroke-linecap:round;stroke-linejoin:round;stroke-opacity:1;stop-color:#000000"
         d="m 25.957266,12.76874 c 0.732052,-0.713445 1.49677,-0.688035 2.167078,-0.3689"
         id="path2168" /><circle
         style="fill:#ffffff;fill-opacity:1;stroke:none;stroke-width:1;stroke-linecap:round;stroke-linejoin:round;stroke-opacity:1;stop-color:#000000"
         id="path1995"
         cx="21.752001"
         cy="12.853"
         r="0.75" /></g></g></svg>

<?xml version="1.0" encoding="UTF-8"?><svg id="a" xmlns="http://www.w3.org/2000/svg" viewBox="0 0 48 48"><defs><style>.r{stroke-miterlimit:10;}.r,.s{fill:none;stroke:#fff;}.s{stroke-linecap:round;stroke-linejoin:round;}</style></defs><g id="b"><path id="c" class="s" d="M10.0841,25.2809c2.0731.6035,4.2221,1.0693,6.3567,1.3989v5.6669h0c1.904.5873,3.4516.3963,5.3324.2266v-5.3487c.759.0371,1.5055.0556,2.235.0556,4.3541,0,9.3173-.6598,13.9094-1.9949"/><path id="d" class="s" d="M36.1503,21.076c-4.0769,1.0158-8.3416,1.5184-12.1422,1.5184-3.8052,0-8.0758-.5039-12.1572-1.5222"/></g><g id="e"><path id="f" class="s" d="M15.5138,40.4157c-7.9298,2.7243-2.3573,3.7228,6.6086,2.6783"/><path id="g" class="s" d="M32.491,40.4118c7.9494,2.7282,2.3692,3.728-6.6064,2.6811"/></g><g id="h"><path id="i" class="s" d="M11.9171,20.9129c-1.8377,4.5325-5.2215,11.2014-4.004,15.7923,1.6872-1.5181,2.2221-2.3854,3.3463-4.0956.049,4.6099,4.7655,10.5957,12.7406,10.5957s12.6916-5.9858,12.7406-10.5957c1.1242,1.7102,1.6591,2.5775,3.3463,4.0956,1.2175-4.5909-2.1663-11.2598-4.004-15.7924.9768-9.9237-4.4755-16.4507-12.0829-16.4127-7.6074.038-13.0597,6.489-12.0829,16.4127Z"/><path id="j" class="s" d="M14.6847,26.3775c-1.6988,8.3112,1.4019,15.5446,9.3147,15.5446s11.0126-7.2313,9.3155-15.541"/></g><g id="k"><path id="l" class="s" d="M31.5961,18.1187c-1.0164-1.3784-4.6625-1.7293-7.588-1.7293s-6.5717.3508-7.588,1.7293c2.2868,1.5944,5.853,2.2921,7.588,2.279s5.3012-.6846,7.588-2.279Z"/><g id="m"><path id="n" class="s" d="M22.9469,12.3739c0,1.7225-.9806,3.1188-2.1902,3.1188h0c-1.2096,0-2.1902-1.3963-2.1902-3.1188s.9806-3.1188,2.1902-3.1188c1.2096,0,2.1902,1.3963,2.1902,3.1188h0Z"/><path id="o" class="s" d="M29.4498,12.3739c0,1.7225-.9806,3.1188-2.1902,3.1188h0c-1.2096,0-2.1902-1.3963-2.1902-3.1188s.9806-3.1188,2.1902-3.1188h0c1.2096,0,2.1902,1.3963,2.1902,3.1188Z"/><path id="p" class="s" d="M25.9573,12.7688c.7321-.7134,1.4968-.688,2.1671-.3689"/><circle id="q" class="r" cx="21.752" cy="12.853" r=".75"/></g></g></svg>
